dist/assets/vector.svg

<svg width="50" height="51" viewBox="0 0 50 51" fill="none" xmlns="http://www.w3.org/2000/svg">
<path d="M50 23.5657C50 36.5117 38.8063 47.0064 25 47.0064C22.5239 47.01 20.0581 46.6655 17.6656 45.9817C15.8406 46.9729 11.65 48.875 4.6 50.114C3.975 50.2212 3.5 49.5246 3.74688 48.9018C4.85313 46.1023 5.85313 42.3719 6.15312 38.9696C2.325 34.8507 0 29.4594 0 23.5657C0 10.6197 11.1937 0.125 25 0.125C38.8063 0.125 50 10.6197 50 23.5657ZM15.625 23.5657C15.625 22.6776 15.2958 21.8258 14.7097 21.1978C14.1237 20.5699 13.3288 20.217 12.5 20.217C11.6712 20.217 10.8763 20.5699 10.2903 21.1978C9.70424 21.8258 9.375 22.6776 9.375 23.5657C9.375 24.4538 9.70424 25.3056 10.2903 25.9336C10.8763 26.5616 11.6712 26.9144 12.5 26.9144C13.3288 26.9144 14.1237 26.5616 14.7097 25.9336C15.2958 25.3056 15.625 24.4538 15.625 23.5657ZM28.125 23.5657C28.125 22.6776 27.7958 21.8258 27.2097 21.1978C26.6237 20.5699 25.8288 20.217 25 20.217C24.1712 20.217 23.3763 20.5699 22.7903 21.1978C22.2042 21.8258 21.875 22.6776 21.875 23.5657C21.875 24.4538 22.2042 25.3056 22.7903 25.9336C23.3763 26.5616 24.1712 26.9144 25 26.9144C25.8288 26.9144 26.6237 26.5616 27.2097 25.9336C27.7958 25.3056 28.125 24.4538 28.125 23.5657ZM37.5 26.9144C38.3288 26.9144 39.1237 26.5616 39.7097 25.9336C40.2958 25.3056 40.625 24.4538 40.625 23.5657C40.625 22.6776 40.2958 21.8258 39.7097 21.1978C39.1237 20.5699 38.3288 20.217 37.5 20.217C36.6712 20.217 35.8763 20.5699 35.2903 21.1978C34.7042 21.8258 34.375 22.6776 34.375 23.5657C34.375 24.4538 34.7042 25.3056 35.2903 25.9336C35.8763 26.5616 36.6712 26.9144 37.5 26.9144Z" fill="white"/>
</svg>

<svg width="50" height="51" fill="none" xmlns="http://www.w3.org/2000/svg"><path d="M50 23.566c0 12.946-11.194 23.44-25 23.44a26.534 26.534 0 01-7.334-1.024c-1.825.99-6.016 2.893-13.066 4.132-.625.107-1.1-.59-.853-1.212 1.106-2.8 2.106-6.53 2.406-9.932C2.325 34.85 0 29.46 0 23.566 0 10.62 11.194.125 25 .125s25 10.495 25 23.44zm-34.375 0c0-.888-.33-1.74-.915-2.368a3.023 3.023 0 00-2.21-.981c-.829 0-1.624.353-2.21.98a3.474 3.474 0 00-.915 2.369c0 .888.33 1.74.915 2.368.586.628 1.381.98 2.21.98s1.624-.352 2.21-.98c.586-.628.915-1.48.915-2.368zm12.5 0c0-.888-.33-1.74-.915-2.368a3.023 3.023 0 00-2.21-.981c-.829 0-1.624.353-2.21.98a3.474 3.474 0 00-.915 2.369c0 .888.33 1.74.915 2.368.586.628 1.381.98 2.21.98s1.624-.352 2.21-.98c.586-.628.915-1.48.915-2.368zm9.375 3.348c.829 0 1.624-.352 2.21-.98.586-.628.915-1.48.915-2.368 0-.888-.33-1.74-.915-2.368a3.023 3.023 0 00-2.21-.981c-.829 0-1.624.353-2.21.98a3.474 3.474 0 00-.915 2.369c0 .888.33 1.74.915 2.368.586.628 1.381.98 2.21.98z" fill="#fff"/></svg>
